assets/ui/sound_on.svg

<svg xmlns="http://www.w3.org/2000/svg" viewBox="0 0 48 48"><defs><filter id="d" width="200%" height="200%" x="-50%" y="-50%"><feDropShadow dx="0" dy="0" flood-color="#40d8ff" flood-opacity=".85" stdDeviation="2"/></filter><filter id="e" width="160%" height="160%" x="-30%" y="-30%"><feGaussianBlur result="blur" stdDeviation="3"/><feComposite in="SourceGraphic" in2="blur"/></filter><filter id="b" width="150%" height="150%" x="-20%" y="-20%"><feDropShadow dx="1" dy="2" flood-color="#003050" flood-opacity=".55" stdDeviation="2.5"/></filter><linearGradient id="a" x1="0%" x2="100%" y1="0%" y2="100%"><stop offset="0%" stop-color="#e8f8ff"/><stop offset="45%" stop-color="#70ccee"/><stop offset="100%" stop-color="#1888aa"/></linearGradient><linearGradient id="c" x1="0%" x2="100%" y1="0%" y2="100%"><stop offset="0%" stop-color="#ccf0ff"/><stop offset="55%" stop-color="#40c8ee"/><stop offset="100%" stop-color="#0a6888"/></linearGradient></defs><rect width="12" height="16" x="4" y="16" fill="url(#a)" stroke="#006080" stroke-width="1.2" filter="url(#b)" rx="2.5"/><rect width="3.5" height="7" x="5" y="17" fill="#fff" opacity=".45" rx="1.5"/><path fill="url(#c)" stroke="#005878" stroke-linejoin="round" stroke-width="1.2" d="m16 14 10-8v36l-10-8Z" filter="url(#b)"/><path fill="#fff" d="m16 16 8-7v11l-8 4Z" opacity=".28"/><path fill="none" stroke="#40d8ff" stroke-linecap="round" stroke-width="2.8" d="M30 18q4 6 0 12" filter="url(#d)"/><path fill="none" stroke="#40d8ff" stroke-linecap="round" stroke-width="2.4" d="M34 14q6 10 0 20" filter="url(#d)" opacity=".85"/><path fill="none" stroke="#40d8ff" stroke-linecap="round" stroke-width="2" d="M38 10q8 14 0 28" filter="url(#d)" opacity=".6"/><path fill="none" stroke="#80eeff" stroke-linecap="round" stroke-width="6" d="M30 18q4 6 0 12" filter="url(#e)" opacity=".18"/></svg>

<svg xmlns="http://www.w3.org/2000/svg" viewBox="0 0 48 48">
  <defs>
    <!-- Speaker body gradient: silver-white → cyan-steel -->
    <linearGradient id="spkGrad" x1="0%" y1="0%" x2="100%" y2="100%">
      <stop offset="0%"   stop-color="#E8F8FF"/>
      <stop offset="45%"  stop-color="#70CCEE"/>
      <stop offset="100%" stop-color="#1888AA"/>
    </linearGradient>
    <!-- Cone gradient: lighter face -->
    <linearGradient id="coneGrad" x1="0%" y1="0%" x2="100%" y2="100%">
      <stop offset="0%"   stop-color="#CCF0FF"/>
      <stop offset="55%"  stop-color="#40C8EE"/>
      <stop offset="100%" stop-color="#0A6888"/>
    </linearGradient>
    <!-- Wave glow: cyan -->
    <filter id="waveGlow" x="-50%" y="-50%" width="200%" height="200%">
      <feDropShadow dx="0" dy="0" stdDeviation="2" flood-color="#40D8FF" flood-opacity="0.85"/>
    </filter>
    <!-- Bloom -->
    <filter id="bloom" x="-30%" y="-30%" width="160%" height="160%">
      <feGaussianBlur stdDeviation="3" result="blur"/>
      <feComposite in="SourceGraphic" in2="blur" operator="over"/>
    </filter>
    <!-- Drop shadow -->
    <filter id="spkShadow" x="-20%" y="-20%" width="150%" height="150%">
      <feDropShadow dx="1" dy="2" stdDeviation="2.5" flood-color="#003050" flood-opacity="0.55"/>
    </filter>
    <!-- Specular soft -->
    <filter id="specSoft">
      <feGaussianBlur stdDeviation="1.2"/>
    </filter>
  </defs>

  <!-- ── SPEAKER RECTANGULAR BODY ── -->
  <rect x="4" y="16" width="12" height="16" rx="2.5"
        fill="url(#spkGrad)" stroke="#006080" stroke-width="1.2"
        filter="url(#spkShadow)"/>
  <!-- Body highlight -->
  <rect x="5" y="17" width="3.5" height="7" rx="1.5"
        fill="#FFFFFF" opacity="0.45"/>

  <!-- ── SPEAKER CONE ── -->
  <path d="M 16,14 L 26,6 L 26,42 L 16,34 Z"
        fill="url(#coneGrad)" stroke="#005878" stroke-width="1.2"
        stroke-linejoin="round" filter="url(#spkShadow)"/>
  <!-- Cone face highlight -->
  <path d="M 16,16 L 24,9 L 24,20 L 16,24 Z"
        fill="#FFFFFF" opacity="0.28"/>

  <!-- ── SOUND WAVES ── -->
  <!-- Inner wave (closest) -->
  <path d="M 30,18 Q 34,24 30,30"
        stroke="#40D8FF" stroke-width="2.8" stroke-linecap="round"
        fill="none" filter="url(#waveGlow)"/>
  <!-- Mid wave -->
  <path d="M 34,14 Q 40,24 34,34"
        stroke="#40D8FF" stroke-width="2.4" stroke-linecap="round"
        fill="none" filter="url(#waveGlow)" opacity="0.85"/>
  <!-- Outer wave (farthest) -->
  <path d="M 38,10 Q 46,24 38,38"
        stroke="#40D8FF" stroke-width="2.0" stroke-linecap="round"
        fill="none" filter="url(#waveGlow)" opacity="0.60"/>

  <!-- ── SUBTLE GLOW AURA ── -->
  <path d="M 30,18 Q 34,24 30,30"
        stroke="#80EEFF" stroke-width="6" stroke-linecap="round"
        fill="none" opacity="0.18" filter="url(#bloom)"/>
</svg>
